resources/SLDS/icons/utility/smiley_and_people.svg

<svg xmlns="http://www.w3.org/2000/svg" x="0px" y="0px"
   width="52px" height="52px" viewBox="0 0 52 52" enable-background="new 0 0 52 52" xml:space="preserve">
  <path fill="#FFFFFF" d="M50,26.1 C50,39.4 39.2448133,50.2 26,50.2 C12.7551867,50.2 2,39.4 2,26.1 C2,12.8 12.7551867,2 26,2 C39.2448133,2 50,12.8 50,26.1 Z M17,15 C15.3255814,15 14,16.7674419 14,19 C14,21.2325581 15.3255814,23 17,23 C18.6744186,23 20,21.2325581 20,19 C20,16.7674419 18.6744186,15 17,15 Z M35,15 C33.3255814,15 32,16.7674419 32,19 C32,21.2325581 33.3255814,23 35,23 C36.6744186,23 38,21.2325581 38,19 C38,16.7674419 36.6744186,15 35,15 Z M11,29 C11.6320591,36.6439458 17.1578483,43 25.9212267,43 C34.684605,43 40.3679409,36.6439458 41,29 C38.1939694,29 33.1939694,29 26,29 C18.8060306,29 13.8060306,29 11,29 Z"/>
</svg>

<svg xmlns="http://www.w3.org/2000/svg" height="52" width="52" viewBox="0 0 52 52" fill="#fff"><path d="M50 26.1a24 24 0 0 1-24 24.1A24 24 0 0 1 26 2a24 24 0 0 1 24 24.1zM17 15c-1.7 0-3 1.8-3 4s1.3 4 3 4 3-1.8 3-4-1.3-4-3-4zm18 0c-1.7 0-3 1.8-3 4s1.3 4 3 4 3-1.8 3-4-1.3-4-3-4zM11 29c.6 7.6 6.2 14 15 14s14.4-6.4 15-14H11z"/></svg>
